icons/law-17.svg

<svg width="16" height="17" viewBox="0 0 16 17" fill="none" xmlns="http://www.w3.org/2000/svg">
<path fill-rule="evenodd" clip-rule="evenodd" d="M8.5625 3.29138C8.5625 2.98072 8.31066 2.72888 8 2.72888C7.68935 2.72888 7.43751 2.98072 7.43751 3.29138V4.22888H6.69918C6.47077 4.22888 6.24632 4.28849 6.048 4.4018L5.08137 4.95417C5.05304 4.97036 5.02097 4.97888 4.98834 4.97888H3.31252C3.00186 4.97888 2.75002 5.23072 2.75002 5.54137C2.75002 5.85203 3.00186 6.10387 3.31252 6.10387H3.63318L2.04956 9.62303C1.95366 9.83615 1.99952 10.0864 2.16477 10.2516L2.56251 9.85386C2.16477 10.2516 2.16497 10.2518 2.16516 10.252L2.16557 10.2524L2.16643 10.2532L2.16832 10.2551L2.17278 10.2595L2.18439 10.2706C2.19333 10.279 2.20469 10.2893 2.21847 10.3014C2.24602 10.3255 2.28335 10.3564 2.33048 10.3918C2.42468 10.4624 2.55873 10.5512 2.73283 10.6382C3.08287 10.8133 3.59033 10.9789 4.25001 10.9789C4.90969 10.9789 5.41716 10.8133 5.76719 10.6382C5.94128 10.5512 6.07534 10.4624 6.16954 10.3918C6.21668 10.3564 6.254 10.3255 6.28154 10.3014C6.29533 10.2893 6.30669 10.279 6.31563 10.2706L6.32724 10.2595L6.3317 10.2551L6.33359 10.2532L6.33445 10.2524L6.33485 10.252C6.33505 10.2518 6.33525 10.2516 5.9375 9.85386L6.33525 10.2516C6.5005 10.0864 6.54636 9.83615 6.45046 9.62303L4.86684 6.10387H4.98834C5.21675 6.10387 5.44121 6.04426 5.63952 5.93095L6.60616 5.37858C6.63448 5.36239 6.66655 5.35387 6.69918 5.35387H7.43751V12.4789H5.56251C5.25186 12.4789 5.00001 12.7307 5.00001 13.0414C5.00001 13.352 5.25186 13.6039 5.56251 13.6039H10.4375C10.7481 13.6039 11 13.352 11 13.0414C11 12.7307 10.7481 12.4789 10.4375 12.4789H8.5625V5.35387H9.30083C9.33346 5.35387 9.36553 5.36239 9.39385 5.37858L10.3605 5.93095C10.5588 6.04426 10.7832 6.10387 11.0117 6.10387H11.1332L9.54955 9.62303C9.45364 9.83615 9.4995 10.0864 9.66475 10.2516L10.0625 9.85386C9.66475 10.2516 9.66498 10.2518 9.66513 10.252L9.66558 10.2524L9.6664 10.2532L9.66828 10.2551L9.67278 10.2595L9.6844 10.2706C9.69333 10.279 9.70465 10.2893 9.71845 10.3014C9.74598 10.3255 9.78333 10.3564 9.83043 10.3918C9.92463 10.4624 10.0587 10.5512 10.2328 10.6382C10.5828 10.8133 11.0903 10.9789 11.75 10.9789C12.4097 10.9789 12.9171 10.8133 13.2671 10.6382C13.4413 10.5512 13.5753 10.4624 13.6695 10.3918C13.7166 10.3564 13.754 10.3255 13.7815 10.3014C13.7953 10.2893 13.8067 10.279 13.8156 10.2706L13.8228 10.2637L13.8272 10.2595L13.8317 10.2551L13.8335 10.2532L13.8344 10.2524L13.8348 10.252C13.835 10.2518 13.8353 10.2516 13.4375 9.85386L13.8353 10.2516C14.0005 10.0864 14.0463 9.83615 13.9505 9.62303L12.3668 6.10387H12.6875C12.9981 6.10387 13.25 5.85203 13.25 5.54137C13.25 5.23072 12.9981 4.97888 12.6875 4.97888H11.0117C10.979 4.97888 10.9469 4.97036 10.9187 4.95417L9.952 4.4018C9.7537 4.28849 9.52923 4.22888 9.30083 4.22888H8.5625V3.29138ZM3.27142 9.64925C3.48507 9.75037 3.8098 9.85386 4.25001 9.85386C4.69023 9.85386 5.01495 9.75037 5.22861 9.64925L4.25001 7.4746L3.27142 9.64925ZM10.7714 9.64925C10.985 9.75037 11.3098 9.85386 11.75 9.85386C12.1902 9.85386 12.5149 9.75037 12.7286 9.64925L11.75 7.4746L10.7714 9.64925Z" fill="#272431"/>
</svg>

<svg xmlns="http://www.w3.org/2000/svg" width="16" height="17" viewBox="0 0 16 17"><path fill-rule="evenodd" d="M8.563 3.291a.563.563 0 00-1.125 0v.938h-.739c-.228 0-.453.06-.651.173l-.967.552a.188.188 0 01-.093.025H3.313a.562.562 0 100 1.125h.32L2.05 9.623a.562.562 0 00.115.629l.398-.398-.398.398.001.001.002.002.005.004.011.012a1.393 1.393 0 00.146.12c.095.071.229.16.403.247.35.175.857.34 1.517.34.66 0 1.167-.165 1.517-.34a2.64 2.64 0 00.515-.337l.034-.03.011-.012.005-.004.002-.002v-.001l-.396-.398.397.398a.562.562 0 00.115-.629l-1.583-3.52h.121c.229 0 .453-.059.652-.172l.966-.552a.187.187 0 01.093-.025h.739v7.125H5.563a.562.562 0 100 1.125h4.875a.563.563 0 000-1.125H8.562V5.354h.739a.18.18 0 01.093.025l.966.552c.199.113.423.173.652.173h.121L9.55 9.623a.562.562 0 00.115.629l.398-.398-.398.398.001.001.002.002.005.004.011.012a1.33 1.33 0 00.146.12c.095.071.229.16.403.247.35.175.857.34 1.517.34.66 0 1.167-.165 1.517-.34a2.636 2.636 0 00.514-.337l.035-.03.007-.007.004-.005.005-.004.002-.002v-.001l-.396-.398.397.398a.563.563 0 00.115-.629l-1.583-3.52h.32a.563.563 0 000-1.124h-1.675a.187.187 0 01-.093-.025l-.967-.552a1.313 1.313 0 00-.651-.173h-.739V3.29zM3.27 9.65c.214.101.539.205.979.205.44 0 .765-.104.979-.205L4.25 7.475l-.979 2.174zm7.5 0c.214.101.539.205.979.205.44 0 .765-.104.979-.205l-.979-2.174-.979 2.174z"/></svg>
